X: 11162
T: SHEELAN O' GEARY
O: "Irish"
%R: waltz
B: "Edinburgh Repository of Music" v.1 p.116 #2 - p.117 #1
F: http://digital.nls.uk/special-collections-of-printed-music/pageturner.cfm?id=87776133
Z: 2015 John Chambers <jc:trillian.mit.edu>
M: 3/4
L: 1/4
K: C
|:\
cee | dff | cee | f2a |\
g>fe | dgf | ecc | c2z :|\
|:\
ceg | c'2_b | aff | f2z |
d^fa | d'2=c' | bgg | g2z |\
ceg | c'2_b | aff | g2f |\
ecc | fdg | ecc | c2z :|

% - - - - tune continued onto next page - - - - %

%%sep 2 1 500
%%sep 1 1 500

